X:1
T:[ID 5-7b]
T:[ID 5-7b]
T:Bezeichnung standardisiert: Schwabisch Schwabisch
T:Urheber unbekannt Datum in der hier transkribierten schriftlichen Quelle: 1773
C:Urheber unbekannt
C:Datum in der hier transkribierten schriftlichen Quelle: 1773
L:1/8
M:3/4
K:D
V:1 treble 
V:1
 D2 F2 A2 | d2 f2 a2 | g4 ec | d2 fd A2 | D2 F2 A2 | d2 f2 a2 | g4 ec | d6 :: e4 cA | f4 dB | %10
 g2 e2 d2 | c2 ec A2 | e4 cA | f4 dB | g2 e2 c2 | d6 :| %16

